X:1
T:7 Lieder, Op. 48
T:Gold überwiegt die Liebe
T:4. Gold überwiegt die Liebe
T:Johannes Brahms
T:7 Lieder, Op. 48
T:Josef Wenzig
T:Creative Commons copyright waiver (CC0 1.0 Universal)
T:Creative Commons copyright waiver (CC0 1.0 Universal)
C:Johannes Brahms
Z:Josef Wenzig
Z:Creative Commons copyright waiver (CC0 1.0 Universal)
L:1/8
Q:1/4=50
M:2/4
K:G
V:1 treble nm="Singstimme\nVoice"
V:1
"^Poco andante" e3/2 e/ (f/e/) z/ e/ | (e/d/) (d/c/) (c/B/) z | B3/2 B/ (B/A/) (F/G/) | ^c2 F z | %4
w: Stern- chen mit _ dem|trü- * ben _ Schein, _|könn- test du _ doch _|wei- nen!|
 e3/2 e/ (f/e/) z/ e/ | (e/d/) (c/d/) (c/B/) z | (d/c/) (c/B/) (B/A/) (d/c/) | %7
w: Hät- test du _ ein|Her- * ze- * lein, _|o _ du _ gold- * nes _|
 (c/B/) (B/A/) (A/G/) z | g =f c A | (G>^F) E2 | z4 | z4 || e3/2 e/ (f/e/) z/ e/ | %13
w: Stern- * lein _ mein, _|möch- test Fun- ken|wei- * nen.|||2. Wein- test mit _ mir,|
 (e/d/) (d/c/) (c/B/) z | c3/2 B/ (B/A/) (F/G/) | ^c2 F z | e3/2 e/ (f/e/) z/ e/ | %17
w: wein- * test _ laut _|Näch- te durch _ voll _|Lei- den,|dass sie mich _ vom|
 (e/d/) (c/d/) (c/B/) z | (d/c/) (c/B/) (B/A/) (d/c/) | (c/B/) (B/A/) (A/G/) z | g =f c A | %21
w: Lieb- * sten _ traut, _|um _ das _ Gold _ der _|rei- * chen _ Braut _|mich vom Lieb- sten|
 (G>^F) E2 | z4 | z4 | z4 |] %25
w: schei- * den.||||

